X: 40290
T: Tolka, The
R: polka
M: 2/4
K: Aminor
A>B cg|de cA|B/c/B/A/ GB|AB GA|
A>B cg|de cA|B/c/B/A/ GB|BA A2:|
|:d>e fa|ga fd|g/e/d/c/ Bd/c/|B/A/G B/A/G|
A>B cg|de cA|B/c/B/A/ GB|BA A2:|

